!!!COM: Laur, Ferdinand-Samuel
!!!CDT: b.1929
!!!OTL: National Anthem, Lesotho
!!!ENC: Davis, Matthew J.
!!Vocal Line Only
**kern
*clefG2
*k[b-e-]
*B-:
*M2/4
==!|:1-
4b-
4f
=2
8b-
8a
8b-
8cc
=3
8dd
8cc
8b-
8dd
=4
4cc
4r
=5
8cc
8b-
8a
8b-
=6
4cc
4dd
=7
8ee-
8dd
8cc
8ee-
=8
4dd
4r
=9
8dd
8cc
8dd
8ee-
=10
4ff
4ee-
=11
8dd
8dd
8dd
8ee-
=12
4ff
4ee-
=13
4.dd
8dd
=14
4.cc
8cc
=15
2b-
=16
1r
==:|!
*-
